raw-svg/sliders-h.svg

<svg viewBox="0 0 24 24" xmlns="http://www.w3.org/2000/svg"><path d="m19 8.25h-7a.75.75 0 0 1 0-1.5h7a.75.75 0 0 1 0 1.5z"/><path d="m10 8.25h-5a.75.75 0 0 1 0-1.5h5a.75.75 0 0 1 0 1.5z"/><path d="m10 9.75a.76.76 0 0 1 -.75-.75v-3a.75.75 0 0 1 1.5 0v3a.76.76 0 0 1 -.75.75z"/><path d="m19 17.25h-7a.75.75 0 0 1 0-1.5h7a.75.75 0 0 1 0 1.5z"/><path d="m10 17.25h-5a.75.75 0 0 1 0-1.5h5a.75.75 0 0 1 0 1.5z"/><path d="m10 18.75a.76.76 0 0 1 -.75-.75v-3a.75.75 0 0 1 1.5 0v3a.76.76 0 0 1 -.75.75z"/><path d="m19 12.75h-3a.75.75 0 0 1 0-1.5h3a.75.75 0 0 1 0 1.5z"/><path d="m14 12.75h-9a.75.75 0 0 1 0-1.5h9a.75.75 0 0 1 0 1.5z"/><path d="m14 14.25a.76.76 0 0 1 -.75-.75v-3a.75.75 0 0 1 1.5 0v3a.76.76 0 0 1 -.75.75z"/></svg>

<svg xmlns="http://www.w3.org/2000/svg" viewBox="0 0 24 24"><g id="sliders-h"><path d="M19,8.25H12a.75.75,0,0,1,0-1.5h7a.75.75,0,0,1,0,1.5Z"/><path d="M10,8.25H5a.75.75,0,0,1,0-1.5h5a.75.75,0,0,1,0,1.5Z"/><path d="M10,9.75A.76.76,0,0,1,9.25,9V6a.75.75,0,0,1,1.5,0V9A.76.76,0,0,1,10,9.75Z"/><path d="M19,17.25H12a.75.75,0,0,1,0-1.5h7a.75.75,0,0,1,0,1.5Z"/><path d="M10,17.25H5a.75.75,0,0,1,0-1.5h5a.75.75,0,0,1,0,1.5Z"/><path d="M10,18.75A.76.76,0,0,1,9.25,18V15a.75.75,0,0,1,1.5,0v3A.76.76,0,0,1,10,18.75Z"/><path d="M19,12.75H16a.75.75,0,0,1,0-1.5h3a.75.75,0,0,1,0,1.5Z"/><path d="M14,12.75H5a.75.75,0,0,1,0-1.5h9a.75.75,0,0,1,0,1.5Z"/><path d="M14,14.25a.76.76,0,0,1-.75-.75v-3a.75.75,0,0,1,1.5,0v3A.76.76,0,0,1,14,14.25Z"/></g></svg>
